src/lib/packages/icons/src/assets/line/chart-trend-down.svg

<svg width="24" height="24" viewBox="0 0 24 24" fill="none" xmlns="http://www.w3.org/2000/svg">
<path d="M21.75 20C21.75 20.414 21.414 20.75 21 20.75H4.5C3.091 20.75 2.25 19.909 2.25 18.5V4.00002C2.25 3.58602 2.586 3.25002 3 3.25002C3.414 3.25002 3.75 3.58602 3.75 4.00002V18.5C3.75 19.089 3.911 19.25 4.5 19.25H21C21.414 19.25 21.75 19.586 21.75 20ZM9.14502 6.20498C9.92702 6.98698 11.199 6.98698 11.981 6.20498L13.131 5.05508C13.324 4.86208 13.652 4.86108 13.845 5.05508L16.19 7.40005H15C14.586 7.40005 14.25 7.73605 14.25 8.15005C14.25 8.56405 14.586 8.90005 15 8.90005H18C18.098 8.90005 18.195 8.88006 18.287 8.84206C18.47 8.76606 18.616 8.62006 18.692 8.43606C18.73 8.34406 18.75 8.24707 18.75 8.14907V5.00002C18.75 4.58602 18.414 4.25002 18 4.25002C17.586 4.25002 17.25 4.58602 17.25 5.00002V6.33901L14.905 3.99404C14.124 3.21204 12.851 3.21104 12.07 3.99404L10.92 5.14407C10.727 5.33707 10.399 5.33707 10.205 5.14407L8.53003 3.46902C8.23703 3.17602 7.76199 3.17602 7.46899 3.46902C7.17599 3.76202 7.17599 4.23705 7.46899 4.53005L9.14502 6.20498ZM12.25 12V16C12.25 16.414 12.586 16.75 13 16.75C13.414 16.75 13.75 16.414 13.75 16V12C13.75 11.586 13.414 11.25 13 11.25C12.586 11.25 12.25 11.586 12.25 12ZM8 16.75C8.414 16.75 8.75 16.414 8.75 16V10C8.75 9.58602 8.414 9.25002 8 9.25002C7.586 9.25002 7.25 9.58602 7.25 10V16C7.25 16.414 7.586 16.75 8 16.75ZM18 13.25C17.586 13.25 17.25 13.586 17.25 14V16C17.25 16.414 17.586 16.75 18 16.75C18.414 16.75 18.75 16.414 18.75 16V14C18.75 13.586 18.414 13.25 18 13.25Z" fill="currentColor"/>
</svg>

<svg xmlns="http://www.w3.org/2000/svg" width="24" height="24" fill="none"><path fill="currentColor" d="M21.75 20a.75.75 0 0 1-.75.75H4.5c-1.409 0-2.25-.841-2.25-2.25V4a.75.75 0 0 1 1.5 0v14.5c0 .589.161.75.75.75H21a.75.75 0 0 1 .75.75ZM9.145 6.205a2.007 2.007 0 0 0 2.836 0l1.15-1.15a.512.512 0 0 1 .714 0L16.19 7.4H15a.75.75 0 0 0 0 1.5h3a.75.75 0 0 0 .75-.75V5a.75.75 0 0 0-1.5 0v1.339l-2.345-2.345a2.005 2.005 0 0 0-2.835 0l-1.15 1.15a.514.514 0 0 1-.715 0L8.53 3.47a.75.75 0 0 0-1.061 1.06l1.676 1.675ZM12.25 12v4a.75.75 0 0 0 1.5 0v-4a.75.75 0 0 0-1.5 0ZM8 16.75a.75.75 0 0 0 .75-.75v-6a.75.75 0 0 0-1.5 0v6c0 .414.336.75.75.75Zm10-3.5a.75.75 0 0 0-.75.75v2a.75.75 0 0 0 1.5 0v-2a.75.75 0 0 0-.75-.75Z"/></svg>
